X:1
T:RVW2/1/26 Seventeen Come Sunday-0
T:RVW2/1/26 Seventeen Come Sunday-0
T:Sung in an inn at Braithwell by a navvy from Lincs., Sept 1907
T:Transcribed by Simon Furey and Lewis Jones
C:Transcribed by Simon Furey and Lewis Jones
L:1/8
Q:1/4=90
M:2/4
K:E
V:1 treble 
V:1
"^(editorial suggestion)" E | EEGB | EEEB, | EG BB |[M:3/4] cd e2 f2 | ec e2 f2 | ec e2 dc | %7
[M:2/4] BcBG | GF FG | EG E2 | GB/G/ E2 |[M:4/4] G2 B2 c2 AG |[M:2/4] F2 E2 |] %13

